lib/assets/certificate.svg

<svg id="Capa_1" enable-background="new 0 0 512 512" height="512" viewBox="0 0 512 512" width="512" xmlns="http://www.w3.org/2000/svg"><g><g><path d="m256 385v117l46.25-30 43.75 30v-117z" fill="#ff7b79"/><path d="m10 10h492v360h-492z" fill="#eefaff"/><circle cx="301" cy="325" fill="#ffda8f" r="75"/></g><g><path d="m130 140h66c5.523 0 10-4.477 10-10s-4.477-10-10-10h-66c-5.523 0-10 4.477-10 10s4.477 10 10 10z"/><path d="m382 200c5.523 0 10-4.477 10-10s-4.477-10-10-10h-252c-5.523 0-10 4.477-10 10s4.477 10 10 10z"/><circle cx="256" cy="10" r="10"/><path d="m502 0h-201c-5.523 0-10 4.477-10 10s4.477 10 10 10h191v340h-113.519c4.941-10.897 7.519-22.742 7.519-35 0-1.667-.064-3.335-.161-5h26.161c5.523 0 10-4.477 10-10 0-11.028 8.972-20 20-20 5.523 0 10-4.477 10-10v-180c0-5.523-4.477-10-10-10-11.028 0-20-8.972-20-20 0-5.523-4.477-10-10-10h-312c-5.523 0-10 4.477-10 10 0 11.028-8.972 20-20 20-5.523 0-10 4.477-10 10v180c0 5.523 4.477 10 10 10 11.028 0 20 8.972 20 20 0 5.523 4.477 10 10 9.99h116.161c-.097 1.675-.161 3.343-.161 5.01 0 12.259 2.578 24.105 7.518 35h-203.518v-340h191c5.523 0 10-4.477 10-10s-4.477-10-10-10h-201c-5.523 0-10 4.477-10 10v360c0 5.523 4.477 10 10 10h226.207c2.994 3.528 6.268 6.802 9.793 9.794v112.206c0 3.666 2.005 7.037 5.226 8.787 3.22 1.749 7.14 1.597 10.216-.397l40.654-26.37 38.249 26.228c3.06 2.099 7.033 2.33 10.316.6 3.284-1.729 5.339-5.136 5.339-8.847v-112.208c3.528-2.994 6.802-6.268 9.794-9.793h136.206c5.523 0 10-4.477 10-10v-360c0-5.523-4.477-10-10-10zm-266 325c0-36.419 29.755-65 65-65 35.273 0 65 28.605 65 65 0 35.738-28.916 65-65 65-35.961 0-65-29.134-65-65zm-156-53.734v-162.532c14.036-3.625 25.109-14.699 28.734-28.734h294.531c3.625 14.036 14.699 25.109 28.734 28.734v162.531c-14.036 3.625-25.109 14.699-28.734 28.734h-21.019c-10.83-35.212-43.764-60-81.247-60-37.481 0-70.414 24.787-81.246 60h-111.019c-3.625-14.035-14.698-25.108-28.734-28.733zm227.905 192.487c-3.331-2.284-7.708-2.341-11.097-.143l-30.808 19.984v-81.113c10.897 4.941 22.742 7.519 35 7.519 12.259 0 24.105-2.578 35-7.518v80.536z"/></g></g></svg>

<svg xmlns="http://www.w3.org/2000/svg" height="512" width="512"><path d="M256 385v117l46.25-30L346 502V385z" fill="#ff7b79"/><path d="M10 10h492v360H10z" fill="#eefaff"/><circle cx="301" cy="325" fill="#ffda8f" r="75"/><path d="M130 140h66a10 10 0 1 0 0-20h-66a10 10 0 1 0 0 20zm252 60a10 10 0 1 0 0-20H130a10 10 0 1 0 0 20z"/><circle cx="256" cy="10" r="10"/><path d="M502 0H301a10 10 0 1 0 0 20h191v340H378.48c4.94-10.897 7.52-22.742 7.52-35 0-1.667-.064-3.335-.16-5H412a10 10 0 0 0 10-10c0-11.028 8.972-20 20-20a10 10 0 0 0 10-10V100a10 10 0 0 0-10-10c-11.028 0-20-8.972-20-20a10 10 0 0 0-10-10H100a10 10 0 0 0-10 10c0 11.028-8.972 20-20 20a10 10 0 0 0-10 10v180a10 10 0 0 0 10 10c11.028 0 20 8.972 20 20 0 5.523 4.477 10 10 10h116.16c-.097 1.675-.16 3.343-.16 5 0 12.26 2.578 24.105 7.518 35H20V20h191a10 10 0 1 0 0-20H10A10 10 0 0 0 0 10v360a10 10 0 0 0 10 10h226.207a84.89 84.89 0 0 0 9.793 9.794V502a10 10 0 0 0 5.226 8.787c3.22 1.75 7.14 1.597 10.216-.397l40.654-26.37 38.25 26.228A10 10 0 0 0 356 502.001V389.793a84.89 84.89 0 0 0 9.794-9.793H502a10 10 0 0 0 10-10V10a10 10 0 0 0-10-10zM236 325c0-36.42 29.755-65 65-65 35.273 0 65 28.605 65 65 0 35.738-28.916 65-65 65-35.96 0-65-29.134-65-65zM80 271.266V108.734A40.15 40.15 0 0 0 108.734 80h294.53a40.15 40.15 0 0 0 28.734 28.734v162.53a40.15 40.15 0 0 0-28.734 28.734h-21.02c-10.83-35.212-43.764-60-81.247-60s-70.414 24.787-81.246 60h-111.02A40.15 40.15 0 0 0 80 271.266zm227.905 192.487a10 10 0 0 0-11.097-.143L266 483.594V402.48c10.897 4.94 22.742 7.52 35 7.52s24.105-2.578 35-7.518v80.536z"/></svg>
